images/client4.svg

<svg width="178" height="98" fill="none" xmlns="http://www.w3.org/2000/svg"><g filter="url(#filter0_d)"><rect x="4.5" y=".5" width="169" height="89" rx="3.5" stroke="#AFB1B8"/><path d="M61.402 36.8306h-.0028c-2.2623 0-4.0962 1.7871-4.0962 3.9917v.0026c0 2.2046 1.8339 3.9918 4.0962 3.9918h.0028c2.2623 0 4.0962-1.7872 4.0962-3.9918v-.0026c0-2.2046-1.8339-3.9917-4.0962-3.9917zM91.6368 35.5545c-.0064-3.0621-1.2573-5.997-3.4789-8.1624C85.9363 25.2266 82.925 24.007 79.7828 24c-3.1431.0056-6.1559 1.2246-8.3787 3.3902-2.2227 2.1656-3.4743 5.1013-3.4808 8.1643v16.8857s23.7108-2.5735 23.7135-16.8831v-.0026zM49 57.9823c.0057 2.1306.8766 4.1724 2.4223 5.6792 1.5457 1.5068 3.6406 2.3562 5.8269 2.3624 2.1859-.0062 4.2804-.8552 5.826-2.3614 1.5457-1.5063 2.4168-3.5474 2.4233-5.6776V46.2356S49 48.0276 49 57.9823zm8.2492 2.1051a2.1998 2.1998 0 01-1.2001-.3548c-.3553-.2313-.6321-.56-.7956-.9447a2.0558 2.0558 0 01-.123-1.2163 2.0894 2.0894 0 01.5912-1.0779 2.1787 2.1787 0 011.1061-.5761 2.2133 2.2133 0 011.2481.1198c.3947.1593.7321.4291.9695.7753.2373.3462.364.7532.364 1.1696a2.0574 2.0574 0 01-.1621.808 2.1035 2.1035 0 01-.4677.6857 2.165 2.165 0 01-.7018.4583 2.2091 2.2091 0 01-.8286.161v-.0079zM74.0891 58.7812h-1.6875v1.7432h-.8789v-4.2656H74.3v.7119h-1.8984v1.1016h1.6875v.7089zm4.2246-.2929c0 .4199-.0742.7881-.2226 1.1045-.1485.3164-.3614.5605-.6387.7324-.2754.1719-.5918.2578-.9492.2578-.3535 0-.669-.085-.9463-.2549-.2774-.1699-.4922-.4121-.6445-.7265-.1524-.3164-.2295-.6797-.2315-1.0899v-.2109c0-.4199.0752-.7891.2256-1.1074.1523-.3204.3662-.5655.6416-.7354.2773-.1719.5937-.2578.9492-.2578.3555 0 .6709.0859.9463.2578.2773.1699.4912.415.6416.7354.1523.3183.2285.6865.2285 1.1045v.1904zm-.8906-.1934c0-.4472-.0801-.7871-.2402-1.0195-.1602-.2324-.3887-.3486-.6856-.3486-.2949 0-.5224.1152-.6826.3457-.1602.2285-.2412.5644-.2432 1.0078v.208c0 .4355.0801.7734.2403 1.0137.1601.2402.3906.3603.6914.3603.2949 0 .5215-.1152.6797-.3457.1582-.2324.2382-.5703.2402-1.0137v-.208zm3.7412 1.1104c0-.166-.0586-.293-.1758-.3809-.1172-.0898-.3281-.1836-.6328-.2812-.3047-.0996-.5459-.1973-.7236-.293-.4844-.2617-.7266-.6143-.7266-1.0576 0-.2305.0645-.4356.1934-.6153.1308-.1816.3174-.3232.5595-.4248.2442-.1015.5176-.1523.8204-.1523.3046 0 .5761.0557.8144.167.2383.1094.4229.2646.5537.4658.1328.2012.1992.4297.1992.6856h-.8789c0-.1954-.0615-.3467-.1845-.4541-.1231-.1094-.2959-.1641-.5186-.1641-.2148 0-.3818.0459-.501.1377-.1191.0898-.1787.209-.1787.3574 0 .1387.0694.2549.208.3486.1407.0938.3467.1817.6182.2637.5.1504.8643.3369 1.0928.5596.2285.2226.3427.5.3427.832 0 .3692-.1396.6592-.4189.8701-.2793.209-.6553.3135-1.1279.3135-.3282 0-.627-.0596-.8965-.1787-.2695-.1211-.4756-.2861-.6182-.4951-.1406-.209-.2109-.4512-.2109-.7266h.8818c0 .4707.2813.7061.8438.7061.209 0 .372-.042.4892-.126.1172-.0859.1758-.2051.1758-.3574zm4.6904-2.4346h-1.3066v3.5537h-.8789v-3.5537h-1.2891v-.7119h3.4746v.7119zm3.0703 1.7051h-1.6875v1.1426h1.9805v.706h-2.8594v-4.2656h2.8536v.7119h-1.9747v1.0166h1.6875v.6885zm2.3877.2871h-.7002v1.5615h-.8789v-4.2656h1.585c.5039 0 .8926.1123 1.166.3369.2735.2246.4102.542.4102.9522 0 .291-.0635.5341-.1905.7294-.125.1934-.3154.3477-.5712.4629l.9228 1.7432v.041h-.9434l-.7998-1.5615zm-.7002-.7119h.709c.2207 0 .3916-.0557.5127-.167.1211-.1133.1817-.2686.1817-.4658 0-.2012-.0576-.3594-.1729-.4746-.1133-.1153-.2881-.1729-.5244-.1729h-.7061v1.2803zm5.3262.7705v1.5029h-.8789v-4.2656h1.6641c.3203 0 .6015.0586.8437.1758.2442.1172.4317.2842.5625.5009.1309.2149.1963.46.1963.7354 0 .418-.1435.748-.4306.9902-.2852.2403-.6807.3604-1.1866.3604h-.7705zm0-.7119h.7852c.2324 0 .4092-.0547.5303-.1641.123-.1094.1845-.2656.1845-.4687 0-.209-.0615-.378-.1845-.5069-.1231-.1289-.293-.1953-.5098-.1992h-.8057v1.3389zm5.5603.3662h-1.6872v1.1426h1.9802v.706h-2.8591v-4.2656h2.8531v.7119h-1.9742v1.0166h1.6872v.6885zm4.078-1.7051h-1.306v3.5537h-.879v-3.5537h-1.289v-.7119h3.474v.7119zm3.071 1.7051h-1.688v1.1426h1.981v.706h-2.86v-4.2656h2.854v.7119h-1.975v1.0166h1.688v.6885zm2.387.2871h-.7v1.5615h-.879v-4.2656h1.585c.504 0 .893.1123 1.166.3369.274.2246.41.542.41.9522 0 .291-.063.5341-.19.7294-.125.1934-.315.3477-.571.4629l.923 1.7432v.041h-.944l-.8-1.5615zm-.7-.7119h.709c.221 0 .392-.0557.513-.167.121-.1133.182-.2686.182-.4658 0-.2012-.058-.3594-.173-.4746-.114-.1153-.288-.1729-.525-.1729h-.706v1.2803zm5.165 1.1543c0-.166-.058-.293-.176-.3809-.117-.0898-.328-.1836-.632-.2812-.305-.0996-.546-.1973-.724-.293-.484-.2617-.727-.6143-.727-1.0576 0-.2305.065-.4356.194-.6153.131-.1816.317-.3232.559-.4248.245-.1015.518-.1523.821-.1523.304 0 .576.0557.814.167.238.1094.423.2646.554.4658.133.2012.199.4297.199.6856h-.879c0-.1954-.061-.3467-.184-.4541-.123-.1094-.296-.1641-.519-.1641-.215 0-.382.0459-.501.1377-.119.0898-.179.209-.179.3574 0 .1387.07.2549.208.3486.141.0938.347.1817.619.2637.5.1504.864.3369 1.092.5596.229.2226.343.5.343.832 0 .3692-.14.6592-.419.8701-.279.209-.655.3135-1.128.3135-.328 0-.627-.0596-.896-.1787-.27-.1211-.476-.2861-.618-.4951-.141-.209-.211-.4512-.211-.7266h.881c0 .4707.282.7061.844.7061.209 0 .372-.042.489-.126.118-.0859.176-.2051.176-.3574z" fill="#AFB1B8"/></g><defs><filter id="filter0_d" x="0" y="0" width="178" height="98" filterUnits="userSpaceOnUse" color-interpolation-filters="sRGB"><feFlood flood-opacity="0" result="BackgroundImageFix"/><feColorMatrix in="SourceAlpha" values="0 0 0 0 0 0 0 0 0 0 0 0 0 0 0 0 0 0 127 0"/><feOffset dy="4"/><feGaussianBlur stdDeviation="2"/><feColorMatrix values="0 0 0 0 0 0 0 0 0 0 0 0 0 0 0 0 0 0 0.25 0"/><feBlend in2="BackgroundImageFix" result="effect1_dropShadow"/><feBlend in="SourceGraphic" in2="effect1_dropShadow" result="shape"/></filter></defs></svg>

<svg width="178" height="98" viewBox="0 0 178 98" fill="none" xmlns="http://www.w3.org/2000/svg">
<g filter="url(#filter0_d)">
<rect x="4.5" y="0.5" width="169" height="89" rx="3.5" stroke="#AFB1B8"/>
<path d="M61.402 36.8306H61.3992C59.1369 36.8306 57.303 38.6177 57.303 40.8223V40.8249C57.303 43.0295 59.1369 44.8167 61.3992 44.8167H61.402C63.6643 44.8167 65.4982 43.0295 65.4982 40.8249V40.8223C65.4982 38.6177 63.6643 36.8306 61.402 36.8306Z" fill="#AFB1B8"/>
<path d="M91.6368 35.5545C91.6304 32.4924 90.3795 29.5575 88.1579 27.3921C85.9363 25.2266 82.925 24.007 79.7828 24V24C76.6397 24.0056 73.6269 25.2246 71.4041 27.3902C69.1814 29.5558 67.9298 32.4915 67.9233 35.5545V35.5545V52.4402C67.9233 52.4402 91.6341 49.8667 91.6368 35.5571V35.5545Z" fill="#AFB1B8"/>
<path d="M49 57.9823C49.0057 60.1129 49.8766 62.1547 51.4223 63.6615C52.968 65.1683 55.0629 66.0177 57.2492 66.0239V66.0239C59.4351 66.0177 61.5296 65.1687 63.0752 63.6625C64.6209 62.1562 65.492 60.1151 65.4985 57.9849V57.9849V46.2356C65.4985 46.2356 49 48.0276 49 57.9823ZM57.2492 60.0874C56.822 60.0874 56.4043 59.964 56.0491 59.7326C55.6938 59.5013 55.417 59.1726 55.2535 58.7879C55.09 58.4032 55.0472 57.98 55.1305 57.5716C55.2139 57.1632 55.4196 56.7881 55.7217 56.4937C56.0239 56.1993 56.4088 55.9988 56.8278 55.9176C57.2468 55.8364 57.6812 55.8781 58.0759 56.0374C58.4706 56.1967 58.808 56.4665 59.0454 56.8127C59.2827 57.1589 59.4094 57.5659 59.4094 57.9823C59.4105 58.2594 59.3554 58.534 59.2473 58.7903C59.1392 59.0466 58.9803 59.2796 58.7796 59.476C58.5789 59.6723 58.3404 59.828 58.0778 59.9343C57.8152 60.0406 57.5336 60.0953 57.2492 60.0953V60.0874Z" fill="#AFB1B8"/>
<path d="M74.0891 58.7812H72.4016V60.5244H71.5227V56.2588H74.3V56.9707H72.4016V58.0723H74.0891V58.7812ZM78.3137 58.4883C78.3137 58.9082 78.2395 59.2764 78.0911 59.5928C77.9426 59.9092 77.7297 60.1533 77.4524 60.3252C77.177 60.4971 76.8606 60.583 76.5032 60.583C76.1497 60.583 75.8342 60.498 75.5569 60.3281C75.2795 60.1582 75.0647 59.916 74.9124 59.6016C74.76 59.2852 74.6829 58.9219 74.6809 58.5117V58.3008C74.6809 57.8809 74.7561 57.5117 74.9065 57.1934C75.0588 56.873 75.2727 56.6279 75.5481 56.458C75.8254 56.2861 76.1418 56.2002 76.4973 56.2002C76.8528 56.2002 77.1682 56.2861 77.4436 56.458C77.7209 56.6279 77.9348 56.873 78.0852 57.1934C78.2375 57.5117 78.3137 57.8799 78.3137 58.2979V58.4883ZM77.4231 58.2949C77.4231 57.8477 77.343 57.5078 77.1829 57.2754C77.0227 57.043 76.7942 56.9268 76.4973 56.9268C76.2024 56.9268 75.9749 57.042 75.8147 57.2725C75.6545 57.501 75.5735 57.8369 75.5715 58.2803V58.4883C75.5715 58.9238 75.6516 59.2617 75.8118 59.502C75.9719 59.7422 76.2024 59.8623 76.5032 59.8623C76.7981 59.8623 77.0247 59.7471 77.1829 59.5166C77.3411 59.2842 77.4211 58.9463 77.4231 58.5029V58.2949ZM81.1643 59.4053C81.1643 59.2393 81.1057 59.1123 80.9885 59.0244C80.8713 58.9346 80.6604 58.8408 80.3557 58.7432C80.051 58.6436 79.8098 58.5459 79.6321 58.4502C79.1477 58.1885 78.9055 57.8359 78.9055 57.3926C78.9055 57.1621 78.97 56.957 79.0989 56.7773C79.2297 56.5957 79.4163 56.4541 79.6584 56.3525C79.9026 56.251 80.176 56.2002 80.4788 56.2002C80.7834 56.2002 81.0549 56.2559 81.2932 56.3672C81.5315 56.4766 81.7161 56.6318 81.8469 56.833C81.9797 57.0342 82.0461 57.2627 82.0461 57.5186H81.1672C81.1672 57.3232 81.1057 57.1719 80.9827 57.0645C80.8596 56.9551 80.6868 56.9004 80.4641 56.9004C80.2493 56.9004 80.0823 56.9463 79.9631 57.0381C79.844 57.1279 79.7844 57.2471 79.7844 57.3955C79.7844 57.5342 79.8538 57.6504 79.9924 57.7441C80.1331 57.8379 80.3391 57.9258 80.6106 58.0078C81.1106 58.1582 81.4749 58.3447 81.7034 58.5674C81.9319 58.79 82.0461 59.0674 82.0461 59.3994C82.0461 59.7686 81.9065 60.0586 81.6272 60.2695C81.3479 60.4785 80.9719 60.583 80.4993 60.583C80.1711 60.583 79.8723 60.5234 79.6028 60.4043C79.3333 60.2832 79.1272 60.1182 78.9846 59.9092C78.844 59.7002 78.7737 59.458 78.7737 59.1826H79.6555C79.6555 59.6533 79.9368 59.8887 80.4993 59.8887C80.7083 59.8887 80.8713 59.8467 80.9885 59.7627C81.1057 59.6768 81.1643 59.5576 81.1643 59.4053ZM85.8547 56.9707H84.5481V60.5244H83.6692V56.9707H82.3801V56.2588H85.8547V56.9707ZM88.925 58.6758H87.2375V59.8184H89.218V60.5244H86.3586V56.2588H89.2122V56.9707H87.2375V57.9873H88.925V58.6758ZM91.3127 58.9629H90.6125V60.5244H89.7336V56.2588H91.3186C91.8225 56.2588 92.2112 56.3711 92.4846 56.5957C92.7581 56.8203 92.8948 57.1377 92.8948 57.5479C92.8948 57.8389 92.8313 58.082 92.7043 58.2773C92.5793 58.4707 92.3889 58.625 92.1331 58.7402L93.0559 60.4834V60.5244H92.1125L91.3127 58.9629ZM90.6125 58.251H91.3215C91.5422 58.251 91.7131 58.1953 91.8342 58.084C91.9553 57.9707 92.0159 57.8154 92.0159 57.6182C92.0159 57.417 91.9583 57.2588 91.843 57.1436C91.7297 57.0283 91.5549 56.9707 91.3186 56.9707H90.6125V58.251ZM95.9387 59.0215V60.5244H95.0598V56.2588H96.7239C97.0442 56.2588 97.3254 56.3174 97.5676 56.4346C97.8118 56.5518 97.9993 56.7188 98.1301 56.9355C98.261 57.1504 98.3264 57.3955 98.3264 57.6709C98.3264 58.0889 98.1829 58.4189 97.8958 58.6611C97.6106 58.9014 97.2151 59.0215 96.7092 59.0215H95.9387ZM95.9387 58.3096H96.7239C96.9563 58.3096 97.1331 58.2549 97.2542 58.1455C97.3772 58.0361 97.4387 57.8799 97.4387 57.6768C97.4387 57.4678 97.3772 57.2988 97.2542 57.1699C97.1311 57.041 96.9612 56.9746 96.7444 56.9707H95.9387V58.3096ZM101.499 58.6758H99.8118V59.8184H101.792V60.5244H98.9329V56.2588H101.786V56.9707H99.8118V57.9873H101.499V58.6758ZM105.577 56.9707H104.271V60.5244H103.392V56.9707H102.103V56.2588H105.577V56.9707ZM108.648 58.6758H106.96V59.8184H108.941V60.5244H106.081V56.2588H108.935V56.9707H106.96V57.9873H108.648V58.6758ZM111.035 58.9629H110.335V60.5244H109.456V56.2588H111.041C111.545 56.2588 111.934 56.3711 112.207 56.5957C112.481 56.8203 112.617 57.1377 112.617 57.5479C112.617 57.8389 112.554 58.082 112.427 58.2773C112.302 58.4707 112.112 58.625 111.856 58.7402L112.779 60.4834V60.5244H111.835L111.035 58.9629ZM110.335 58.251H111.044C111.265 58.251 111.436 58.1953 111.557 58.084C111.678 57.9707 111.739 57.8154 111.739 57.6182C111.739 57.417 111.681 57.2588 111.566 57.1436C111.452 57.0283 111.278 56.9707 111.041 56.9707H110.335V58.251ZM115.5 59.4053C115.5 59.2393 115.442 59.1123 115.324 59.0244C115.207 58.9346 114.996 58.8408 114.692 58.7432C114.387 58.6436 114.146 58.5459 113.968 58.4502C113.484 58.1885 113.241 57.8359 113.241 57.3926C113.241 57.1621 113.306 56.957 113.435 56.7773C113.566 56.5957 113.752 56.4541 113.994 56.3525C114.239 56.251 114.512 56.2002 114.815 56.2002C115.119 56.2002 115.391 56.2559 115.629 56.3672C115.867 56.4766 116.052 56.6318 116.183 56.833C116.316 57.0342 116.382 57.2627 116.382 57.5186H115.503C115.503 57.3232 115.442 57.1719 115.319 57.0645C115.196 56.9551 115.023 56.9004 114.8 56.9004C114.585 56.9004 114.418 56.9463 114.299 57.0381C114.18 57.1279 114.12 57.2471 114.12 57.3955C114.12 57.5342 114.19 57.6504 114.328 57.7441C114.469 57.8379 114.675 57.9258 114.947 58.0078C115.447 58.1582 115.811 58.3447 116.039 58.5674C116.268 58.79 116.382 59.0674 116.382 59.3994C116.382 59.7686 116.242 60.0586 115.963 60.2695C115.684 60.4785 115.308 60.583 114.835 60.583C114.507 60.583 114.208 60.5234 113.939 60.4043C113.669 60.2832 113.463 60.1182 113.321 59.9092C113.18 59.7002 113.11 59.458 113.11 59.1826H113.991C113.991 59.6533 114.273 59.8887 114.835 59.8887C115.044 59.8887 115.207 59.8467 115.324 59.7627C115.442 59.6768 115.5 59.5576 115.5 59.4053Z" fill="#AFB1B8"/>
</g>
<defs>
<filter id="filter0_d" x="0" y="0" width="178" height="98" filterUnits="userSpaceOnUse" color-interpolation-filters="sRGB">
<feFlood flood-opacity="0" result="BackgroundImageFix"/>
<feColorMatrix in="SourceAlpha" type="matrix" values="0 0 0 0 0 0 0 0 0 0 0 0 0 0 0 0 0 0 127 0"/>
<feOffset dy="4"/>
<feGaussianBlur stdDeviation="2"/>
<feColorMatrix type="matrix" values="0 0 0 0 0 0 0 0 0 0 0 0 0 0 0 0 0 0 0.25 0"/>
<feBlend mode="normal" in2="BackgroundImageFix" result="effect1_dropShadow"/>
<feBlend mode="normal" in="SourceGraphic" in2="effect1_dropShadow" result="shape"/>
</filter>
</defs>
</svg>
